glot_web/static/assets/language/lua.svg

<?xml version="1.0" encoding="UTF-8" standalone="no"?>
<svg width="256px" height="256px" viewBox="0 0 256 256" version="1.1" xmlns="http://www.w3.org/2000/svg" xmlns:xlink="http://www.w3.org/1999/xlink" preserveAspectRatio="xMidYMid">
	<g>
		<path d="M225.84958,128.023789 C225.84958,73.9999493 182.004106,30.1547455 127.980536,30.1547455 C73.9569673,30.1547455 30.1114931,73.9999493 30.1114931,128.023789 C30.1114931,182.047358 73.9569673,225.892832 127.980536,225.892832 C182.004106,225.892832 225.84958,182.047358 225.84958,128.023789" fill="#00007D"></path>
		<path d="M197.194881,87.4746864 C197.194881,71.6516156 184.35271,58.8094446 168.529639,58.8094446 C152.706568,58.8094446 139.864397,71.6516156 139.864397,87.4746864 C139.864397,103.297757 152.706568,116.139928 168.529639,116.139928 C184.35271,116.139928 197.194881,103.297757 197.194881,87.4746864" fill="#FFFFFF"></path>
		<path d="M254.515092,30.1544752 C254.515092,14.3314044 241.672921,1.48923337 225.84985,1.48923337 C210.026779,1.48923337 197.184608,14.3314044 197.184608,30.1544752 C197.184608,45.9775459 210.026779,58.819717 225.84985,58.819717 C241.672921,58.819717 254.515092,45.9775459 254.515092,30.1544752" fill="#00007D"></path>
		<path d="M61.2496895,113.756182 L69.8085238,113.756182 L69.8085238,169.409554 L101.506027,169.409554 L101.506027,176.936008 L61.2496895,176.936008 L61.2496895,113.756182" fill="#FFFFFF"></path>
		<path d="M116.946044,130.87385 L116.946044,161.45301 C116.946044,163.804317 117.309094,165.725804 118.035464,167.216118 C119.375476,169.968591 121.874653,171.345098 125.533263,171.345098 C130.782209,171.345098 134.356748,168.936482 136.255797,164.119518 C137.288718,161.538974 137.805314,157.998226 137.805314,153.496194 L137.805314,130.87385 L145.546948,130.87385 L145.546948,176.936008 L138.235404,176.936008 L138.321639,170.14079 C137.335755,171.889808 136.111442,173.366336 134.648431,174.570644 C131.750522,176.979261 128.233833,178.183569 124.098365,178.183569 C117.655113,178.183569 113.266348,175.989863 110.931531,171.60299 C109.665588,169.252494 109.032482,166.112642 109.032482,162.183975 L109.032482,130.87385 L116.946044,130.87385" fill="#FFFFFF"></path>
		<path d="M182.879426,149.059582 C184.656828,148.831426 185.847079,148.086674 186.449098,146.827489 C186.792414,146.136532 186.964612,145.14389 186.964612,143.848211 C186.964612,141.200625 186.027117,139.279409 184.152938,138.084562 C182.278488,136.890256 179.595759,136.292832 176.105563,136.292832 C172.070657,136.292832 169.208701,137.387928 167.520507,139.57758 C166.576253,140.788646 165.961529,142.589567 165.675252,144.980612 L158.449943,144.980612 C158.592946,139.287248 160.433064,135.326682 163.969757,133.097833 C167.50645,130.869525 171.608938,129.755506 176.27695,129.755506 C181.689174,129.755506 186.085508,130.787886 189.46514,132.852106 C192.815848,134.916596 194.491067,138.128084 194.491067,142.486843 L194.491067,169.024608 C194.491067,169.82748 194.655696,170.472752 194.985766,170.959341 C195.315024,171.44593 196.010577,171.688955 197.071611,171.688955 C197.415738,171.688955 197.802847,171.667599 198.232938,171.624617 C198.663029,171.581635 199.121233,171.517567 199.609174,171.431603 L199.609174,177.151189 C198.404866,177.495316 197.487105,177.710496 196.856701,177.79619 C196.225757,177.882154 195.365305,177.925407 194.276156,177.925407 C191.609647,177.925407 189.674103,176.979261 188.469795,175.08724 C187.838851,174.084325 187.394703,172.664836 187.136541,170.830395 C185.559451,172.894615 183.294108,174.686074 180.341322,176.205584 C177.387725,177.724283 174.132984,178.484444 170.57818,178.484444 C166.305385,178.484444 162.815189,177.188224 160.105698,174.596866 C157.395937,172.005508 156.041326,168.762391 156.041326,164.867514 C156.041326,160.600938 157.374581,157.293212 160.04109,154.945149 C162.707599,152.597086 166.205364,151.150294 170.535197,150.605854 L182.879426,149.059582 L182.879426,149.059582 Z M166.578416,169.973457 C168.212815,171.261026 170.148089,171.904135 172.384777,171.904135 C175.108325,171.904135 177.745909,171.274272 180.29834,170.015088 C184.598978,167.924917 186.749432,164.504465 186.749432,159.75211 L186.749432,153.52593 C185.804638,154.130112 184.588976,154.633191 183.101094,155.035979 C181.613212,155.439037 180.153715,155.726125 178.723143,155.897242 L174.044317,156.49899 C171.240211,156.871231 169.131388,157.457842 167.718116,158.259092 C165.323556,159.60343 164.127088,161.749288 164.127088,164.695316 C164.127088,166.926598 164.944017,168.685888 166.578416,169.973457 L166.578416,169.973457 Z" fill="#FFFFFF"></path>
		<path d="M132.532038,255.92566 L132.429584,252.990986 C136.058458,252.864473 139.716798,252.578467 143.302691,252.140266 L143.658712,255.054665 C139.989018,255.502868 136.245254,255.795903 132.532038,255.92566 L132.532038,255.92566 Z M121.370492,255.8351 C117.663223,255.645331 113.924596,255.291202 110.258686,254.782175 L110.662285,251.873994 C114.244393,252.371126 117.897597,252.717145 121.520253,252.902589 L121.370492,255.8351 L121.370492,255.8351 Z M154.669685,253.218061 L154.060367,250.345833 C157.60517,249.593782 161.157271,248.67521 164.618543,247.615797 L165.478184,250.423147 C161.934733,251.50797 158.298289,252.447899 154.669685,253.218061 L154.669685,253.218061 Z M99.2796114,252.764182 C95.6674974,251.935088 92.0470032,250.934876 88.5189609,249.790851 L89.4242872,246.997829 C92.8709609,248.115362 96.407924,249.092596 99.9362365,249.902496 L99.2796114,252.764182 L99.2796114,252.764182 Z M175.999324,246.689926 L174.896659,243.968811 C178.249799,242.610686 181.585909,241.085499 184.813077,239.435962 L186.149305,242.050568 C182.846175,243.738762 179.43113,245.299903 175.999324,246.689926 L175.999324,246.689926 Z M78.0551299,245.881107 C74.6433284,244.432422 71.2523421,242.813702 67.9759747,241.06982 L69.3557254,238.477922 C72.5564013,240.181525 75.8695333,241.76321 79.2026695,243.178374 L78.0551299,245.881107 L78.0551299,245.881107 Z M195.857031,236.540486 L194.297512,234.052663 C197.365457,232.129284 200.386906,230.046952 203.278868,227.863248 L205.048161,230.206446 C202.088887,232.441242 198.996612,234.571962 195.857031,236.540486 L195.857031,236.540486 Z M58.3569166,235.397271 C55.2508553,233.377926 52.1931827,231.195573 49.2687814,228.910226 L51.0767307,226.596494 C53.9343611,228.829939 56.922019,230.962822 59.9572545,232.935941 L58.3569166,235.397271 L58.3569166,235.397271 Z M213.656194,223.098458 L211.690644,220.917998 C214.382564,218.490999 217.000144,215.917753 219.470125,213.269086 L221.617605,215.271671 C219.089504,217.981702 216.4111,220.615231 213.656194,223.098458 L213.656194,223.098458 Z M40.77834,221.659776 C38.0658754,219.132215 35.4309947,216.455164 32.9474974,213.70242 L35.1274171,211.735789 C37.5544161,214.425546 40.1290137,217.041774 42.7798437,219.511755 L40.77834,221.659776 L40.77834,221.659776 Z M228.871569,206.784473 L226.559189,204.975713 C228.793174,202.119704 230.927409,199.132857 232.90242,196.098163 L235.36321,197.699582 C233.342243,200.805102 231.157998,203.861964 228.871569,206.784473 L228.871569,206.784473 Z M25.8354551,205.097901 C23.5979556,202.138357 21.4653432,199.046623 19.4970898,195.909204 L21.9841014,194.348874 C23.9074805,197.414386 25.991434,200.435295 28.1775713,203.326986 L25.8354551,205.097901 L25.8354551,205.097901 Z M241.040895,188.083497 L238.449537,186.702665 C240.155033,183.50253 241.73807,180.190479 243.154585,176.857884 L245.857048,178.006775 C244.406471,181.417766 242.786129,184.808211 241.040895,188.083497 L241.040895,188.083497 Z M13.9829525,186.205263 C12.2934065,182.904025 10.7306441,179.490061 9.33764731,176.057445 L12.0584921,174.953428 C13.4190496,178.307109 14.9458585,181.642408 16.5964773,184.867143 L13.9829525,186.205263 L13.9829525,186.205263 Z M249.771388,167.544836 L246.978906,166.637888 C248.097521,163.194729 249.076646,159.658306 249.88925,156.12729 L252.750395,156.785537 C251.918598,160.400355 250.916224,164.020308 249.771388,167.544836 L249.771388,167.544836 Z M5.59929039,165.537115 C4.51257445,161.993124 3.57048363,158.357221 2.7992397,154.730239 L5.67092714,154.119299 C6.42459979,157.662479 7.34479409,161.21431 8.40636959,164.676663 L5.59929039,165.537115 L5.59929039,165.537115 Z M254.774065,145.807273 L251.865884,145.402323 C252.364908,141.821567 252.712819,138.168634 252.899345,134.545166 L255.831856,134.696549 C255.640465,138.404359 255.284714,142.142716 254.774065,145.807273 L254.774065,145.807273 Z M0.957229145,143.720617 C0.507134108,140.049031 0.212206969,136.305808 0.0810982049,132.593943 L3.01550158,132.490408 C3.14336642,136.11739 3.43153537,139.775459 3.87135797,143.363244 L0.957229145,143.720617 L0.957229145,143.720617 Z M252.992068,123.636376 C252.865825,120.016152 252.577926,116.356731 252.136211,112.760025 L255.05007,112.401842 C255.502327,116.08343 255.797254,119.828815 255.926471,123.533922 L252.992068,123.636376 L252.992068,123.636376 Z M3.09822175,121.581347 L0.165980993,121.432667 C0.353858501,117.724857 0.706095037,113.98623 1.21322914,110.320591 L4.1216811,110.722838 C3.62617107,114.304676 3.28177402,117.95788 3.09822175,121.581347 L3.09822175,121.581347 Z M250.33529,101.999105 C249.581618,98.4545723 248.662505,94.900849 247.603092,91.4363337 L250.410982,90.577774 C251.495265,94.1236579 252.435734,97.7609124 253.206978,101.388705 L250.33529,101.999105 L250.33529,101.999105 Z M6.08804224,99.9959789 L3.22608659,99.3404351 C4.05382893,95.7261584 5.05241816,92.1053939 6.19428089,88.5784329 L8.98757339,89.4826779 C7.87220275,92.928 6.89659134,96.4652334 6.08804224,99.9959789 L6.08804224,99.9959789 Z M243.961782,81.1514593 C242.603658,77.7910201 241.081174,74.450585 239.436773,71.2234171 L242.053001,69.8904329 C243.736059,73.1932925 245.293956,76.6121225 246.683979,80.0514974 L243.961782,81.1514593 L243.961782,81.1514593 Z M12.8018923,79.2588976 L10.0986188,78.1127096 C11.5456811,74.6998268 13.1627793,71.3080296 14.9050391,68.0313918 L17.4974784,69.4095206 C15.7954974,72.6110074 14.215434,75.92468 12.8018923,79.2588976 L12.8018923,79.2588976 Z M23.0351341,60.0083464 L20.5727223,58.4093601 C22.5912566,55.3011362 24.772528,52.2423823 27.0557128,49.317981 L29.3699852,51.124849 C27.1389736,53.9824794 25.0077128,56.9714889 23.0351341,60.0083464 L23.0351341,60.0083464 Z M36.4509398,42.8244477 L34.3018374,40.8240253 C36.8277761,38.1104794 39.5037466,35.4742471 42.2551383,32.9893981 L44.2231214,35.1682365 C41.5344456,37.5968574 38.9192988,40.1725364 36.4509398,42.8244477 L36.4509398,42.8244477 Z M52.6281394,28.2146061 L50.8564139,25.873301 C53.8143358,23.6349905 56.9047181,21.5010264 60.0415966,19.5306103 L61.603548,22.016811 C58.5380359,23.9420824 55.5184794,26.0273875 52.6281394,28.2146061 L52.6281394,28.2146061 Z M196.121951,23.1154213 L195.961107,23.0116156 L197.558471,20.5475818 L197.713369,20.6481436 L196.121951,23.1154213 L196.121951,23.1154213 Z M186.553715,17.4882872 C183.351687,15.7919831 180.036393,14.2167856 176.700013,12.8062175 L177.843227,10.1021331 C181.258002,11.5454108 184.651151,13.1576431 187.928059,14.8939556 L186.553715,17.4882872 L186.553715,17.4882872 Z M71.0825766,16.6240507 L69.7436452,14.0110665 C73.0446125,12.319358 76.4583062,10.7549736 79.8890306,9.36116579 L80.9941288,12.0814699 C77.6426103,13.4431088 74.3075818,14.9715396 71.0825766,16.6240507 L71.0825766,16.6240507 Z M166.475151,9.00081943 C163.027396,7.88598944 159.488811,6.91010771 155.957795,6.1004773 L156.61415,3.23879197 C160.228156,4.0673453 163.849732,5.06620486 167.378585,6.20698627 L166.475151,9.00081943 L166.475151,9.00081943 Z M91.2692714,8.42421119 L90.4071975,5.61740232 C93.9495671,4.52933474 97.5851996,3.58562196 101.212722,2.81194509 L101.825014,5.6833622 C98.2812925,6.43919747 94.7297318,7.36128405 91.2692714,8.42421119 L91.2692714,8.42421119 Z M145.227151,4.1276283 C141.637474,3.62887434 137.983189,3.28231468 134.364857,3.09795143 L134.514348,0.165710665 C138.217293,0.354399155 141.957812,0.709068638 145.631561,1.219717 L145.227151,4.1276283 L145.227151,4.1276283 Z M112.580528,3.87919747 L112.221533,0.96479831 C115.891768,0.513081309 119.63499,0.216532207 123.347666,0.083531151 L123.452824,3.0176642 C119.82449,3.14769166 116.166691,3.43748258 112.580528,3.87919747 L112.580528,3.87919747 Z" fill="#929292"></path>
	</g>
</svg>

<svg xmlns="http://www.w3.org/2000/svg" width="256" height="256" preserveAspectRatio="xMidYMid"><path fill="#00007D" d="M225.85 128.024c0-54.024-43.846-97.87-97.87-97.87-54.023 0-97.869 43.846-97.869 97.87 0 54.023 43.846 97.869 97.87 97.869 54.023 0 97.869-43.846 97.869-97.87"/><path fill="#FFF" d="M197.195 87.475c0-15.823-12.842-28.666-28.665-28.666s-28.666 12.843-28.666 28.666 12.843 28.665 28.666 28.665 28.665-12.842 28.665-28.665"/><path fill="#00007D" d="M254.515 30.154c0-15.823-12.842-28.665-28.665-28.665s-28.665 12.842-28.665 28.665c0 15.824 12.842 28.666 28.665 28.666s28.665-12.842 28.665-28.666"/><path fill="#FFF" d="M61.25 113.756h8.559v55.654h31.697v7.526H61.25zM116.946 130.874v30.579q0 3.527 1.09 5.763 2.01 4.13 7.497 4.13 7.875-.001 10.723-7.226 1.55-3.871 1.55-10.624v-22.622h7.74v46.062h-7.31l.086-6.795q-1.478 2.623-3.674 4.43-4.346 3.612-10.55 3.613-9.665 0-13.166-6.581-1.9-3.525-1.9-9.419v-31.31zM182.88 149.06q2.665-.343 3.57-2.233.514-1.035.515-2.979 0-3.971-2.812-5.763t-8.047-1.792q-6.053 0-8.585 3.285-1.417 1.816-1.846 5.403h-7.225q.215-8.54 5.52-11.883t12.307-3.342q8.119 0 13.188 3.096 5.026 3.097 5.026 9.635v26.538q0 1.204.495 1.934.494.73 2.086.73.516 0 1.16-.064.647-.064 1.377-.193v5.72q-1.807.515-2.752.644-.947.13-2.58.13-4 0-5.807-2.839-.946-1.505-1.333-4.257-2.367 3.097-6.796 5.376-4.43 2.278-9.763 2.278-6.409 0-10.472-3.887-4.065-3.887-4.065-9.73 0-6.4 4-9.922t10.494-4.34zm-16.302 20.913q2.452 1.932 5.807 1.931 4.084 0 7.913-1.889 6.451-3.134 6.451-10.263v-6.226q-1.416.906-3.648 1.51t-4.378.861l-4.679.602q-4.206.558-6.326 1.76-3.59 2.017-3.59 6.436 0 3.347 2.45 5.278"/><path fill="#929292" d="m132.532 255.926-.102-2.935c3.628-.127 7.287-.413 10.873-.85l.356 2.914c-3.67.448-7.414.74-11.127.87m-11.162-.09c-3.707-.19-7.445-.545-11.111-1.054l.403-2.908c3.582.497 7.236.843 10.858 1.029zm33.3-2.618-.61-2.872c3.545-.752 7.097-1.67 10.559-2.73l.86 2.807a128 128 0 0 1-10.81 2.795m-55.39-.454c-3.613-.829-7.233-1.83-10.761-2.973l.905-2.793a125 125 0 0 0 10.512 2.904zM176 246.69l-1.103-2.721a125 125 0 0 0 9.916-4.533l1.336 2.615A128 128 0 0 1 176 246.69m-97.945-.809a128 128 0 0 1-10.079-4.811l1.38-2.592c3.2 1.704 6.514 3.285 9.847 4.7zm117.802-9.34-1.56-2.488a126 126 0 0 0 8.982-6.19l1.77 2.343a129 129 0 0 1-9.192 6.334m-137.5-1.144a129 129 0 0 1-9.088-6.487l1.808-2.314a126 126 0 0 0 8.88 6.34zm155.3-12.299-1.966-2.18c2.692-2.427 5.31-5 7.78-7.649l2.147 2.003a130 130 0 0 1-7.962 7.826M40.777 221.66a129 129 0 0 1-7.83-7.958l2.18-1.966a127 127 0 0 0 7.652 7.776zm188.094-14.876-2.313-1.808a126 126 0 0 0 6.343-8.878l2.461 1.602a129 129 0 0 1-6.491 9.084m-203.037-1.686a129 129 0 0 1-6.338-9.189l2.487-1.56a126 126 0 0 0 6.194 8.978zm215.206-17.015-2.591-1.38c1.705-3.2 3.288-6.513 4.705-9.845l2.702 1.149a128 128 0 0 1-4.816 10.076m-227.058-1.878a128 128 0 0 1-4.645-10.148l2.72-1.104a125 125 0 0 0 4.538 9.914zm235.788-18.66-2.792-.907a125 125 0 0 0 2.91-10.51l2.861.658a128 128 0 0 1-2.979 10.759M5.6 165.537a127 127 0 0 1-2.8-10.807l2.872-.61a125 125 0 0 0 2.735 10.557zm249.175-19.73-2.908-.405c.499-3.58.847-7.233 1.033-10.857l2.933.152a129 129 0 0 1-1.058 11.11M.957 143.721a129 129 0 0 1-.876-11.127l2.935-.104c.127 3.627.416 7.285.855 10.873zm252.035-20.085c-.126-3.62-.414-7.28-.856-10.876l2.914-.358c.452 3.681.747 7.427.876 11.132zM3.098 121.581l-2.932-.148c.188-3.708.54-7.447 1.047-11.112l2.909.402c-.496 3.582-.84 7.235-1.024 10.858M250.335 102a126 126 0 0 0-2.732-10.563l2.808-.858a129 129 0 0 1 2.796 10.81zM6.088 99.996l-2.862-.656a128 128 0 0 1 2.968-10.762l2.794.905a125 125 0 0 0-2.9 10.513m237.874-18.845c-1.358-3.36-2.88-6.7-4.525-9.928l2.616-1.333a129 129 0 0 1 4.631 10.161zM12.802 79.26l-2.703-1.146a128 128 0 0 1 4.806-10.082l2.592 1.379a125 125 0 0 0-4.695 9.849m10.233-19.25-2.462-1.6a129 129 0 0 1 6.483-9.091l2.314 1.807a126 126 0 0 0-6.335 8.883m13.416-17.185-2.15-2a129 129 0 0 1 7.954-7.835l1.968 2.18a127 127 0 0 0-7.772 7.655m16.177-14.61-1.772-2.34a129 129 0 0 1 9.186-6.343l1.562 2.486a126 126 0 0 0-8.976 6.198m143.494-5.099-.16-.103 1.596-2.464.155.1zm-9.568-5.627a126 126 0 0 0-9.854-4.682l1.143-2.704a128 128 0 0 1 10.085 4.792zm-115.471-.864-1.34-2.613a128 128 0 0 1 10.146-4.65l1.105 2.72a125 125 0 0 0-9.911 4.543m95.392-7.623a126 126 0 0 0-10.517-2.9l.656-2.862c3.614.828 7.236 1.827 10.765 2.968zM91.27 8.424l-.862-2.807a128 128 0 0 1 10.806-2.805l.612 2.871a125 125 0 0 0-10.556 2.741m53.958-4.296c-3.59-.5-7.244-.846-10.862-1.03l.15-2.932c3.702.188 7.443.543 11.117 1.054zm-32.646-.249-.36-2.914c3.67-.452 7.414-.748 11.127-.881l.105 2.934c-3.629.13-7.286.42-10.872.861"/></svg>
